src/assets/images/patient-back.svg

<?xml version="1.0" encoding="UTF-8"?>
<svg width="43px" height="150px" viewBox="0 0 43 150" version="1.1" xmlns="http://www.w3.org/2000/svg" xmlns:xlink="http://www.w3.org/1999/xlink">
    <title>A8942520-D2CA-48E3-A896-8281CB1A482E</title>
    <g id="aimedis" stroke="none" stroke-width="1" fill="none" fill-rule="evenodd">
        <g id="Dark-Mode---Screen-Example" transform="translate(-427.000000, -1192.000000)">
            <g id="Group-11-Copy" transform="translate(232.000000, 964.000000)">
                <g id="Rectangle" transform="translate(96.000000, 0.000000)">
                    <g id="Group-20" transform="translate(32.000000, 194.000000)">
                        <g id="patient-back" transform="translate(67.000000, 34.000000)">
                            <path d="M0.679567947,50.4347995 C0.402405646,48.8825366 0.0904621937,41.0171029 0.956295484,38.9472746 C1.82234616,36.8774464 0.783259255,33.0486322 3.10424897,29.2886536 C5.42523869,25.5286749 10.7263209,25.6661295 10.7263209,25.6661295 C10.7263209,25.6661295 15.7148076,24.0443817 16.4073873,23.0438853 C17.099967,22.0436055 16.7541119,17.6970095 16.7541119,17.6970095 C15.4030815,16.6967297 15.2646091,13.7638597 15.2646091,13.7638597 C15.2646091,13.7638597 15.160483,14.281425 14.6407222,13.9363815 C14.1209613,13.5915544 13.9479251,10.1073508 14.0863976,9.79694152 C14.2250874,9.48653223 14.8137584,9.59000199 14.8137584,9.59000199 C14.8137584,9.59000199 13.9827062,5.03646652 15.4030815,2.69086325 C16.8234568,0.345259986 20.1837508,0 21.5,0 C22.8162492,0 26.1765432,0.345259986 27.5969185,2.69086325 C29.0172938,5.03646652 28.1862416,9.59000199 28.1862416,9.59000199 C28.1862416,9.59000199 28.77513,9.48653223 28.9136024,9.79694152 C29.0522923,10.1073508 28.8790387,13.5915544 28.3592778,13.9363815 C27.839517,14.281425 27.7353909,13.7638597 27.7353909,13.7638597 C27.7353909,13.7638597 27.5969185,16.6967297 26.2458881,17.6970095 C26.2458881,17.6970095 25.9002504,22.0436055 26.5926127,23.0438853 C27.2851924,24.0443817 32.2736791,25.6661295 32.2736791,25.6661295 C32.2736791,25.6661295 37.5747613,25.5286749 39.895751,29.2886536 C42.2167407,33.0486322 41.1776538,36.8774464 42.0437045,38.9472746 C42.9097552,41.0171029 42.5975944,48.8825366 42.3204321,50.4347995 C42.0432698,51.9872789 42.4586871,54.3326657 42.9093204,55.3331621 C43.3599537,56.3336584 41.9737074,72.7197623 42.1817422,74.9618958 C42.389777,77.2042458 43.1173552,83.2414251 42.8401929,83.7587739 C42.5630306,84.2761227 40.7270205,88.8987102 38.8216656,89.1749182 C38.8216656,89.1749182 37.4358541,90.1747651 36.9508744,89.8643558 C36.4661121,89.5539466 37.0550005,88.8638595 37.0550005,88.8638595 C37.0550005,88.8638595 36.6743643,88.9333444 36.4315483,88.6915542 C36.1889498,88.4504134 38.2677758,86.4496372 38.2677758,86.4496372 C38.2677758,86.4496372 37.2280367,86.897934 36.8819643,86.4840549 C36.5356744,86.0699594 39.5492438,84.4832787 40.0690046,83.3104771 C40.5887655,82.1376755 39.895751,81.3785364 39.895751,81.3785364 L39.0297004,81.7924155 C39.0297004,81.7924155 38.1982135,84.5176965 37.6093251,84.5518978 C37.0204367,84.586965 36.6395831,84.586965 37.1245628,81.3785364 C37.1245628,81.3785364 36.4319831,78.9985154 36.9858729,77.9289671 C37.5397628,76.8596352 38.1636497,76.5838601 38.1636497,75.4454763 C38.1636497,74.3068759 36.4658947,68.3740322 35.9117875,65.0967681 C35.3578977,61.8197205 36.3969846,55.4379306 35.84266,54.196077 C35.2885527,52.9544398 34.6307542,50.0209205 34.5957557,47.9166745 C34.5609745,45.8124285 34.0068673,43.018312 33.4871065,42.3284414 C32.9673456,41.6383544 33.7157926,46.3302103 32.5619279,49.3312664 C31.4076284,52.3323225 32.2045515,57.5408778 32.7588761,59.7832278 C33.3134181,62.0255777 35.1489934,74.6166358 35.322247,79.2045891 C35.4952832,83.7925423 34.1792514,100.799032 34.352505,103.248321 C34.5255412,105.697394 35.703318,109.14718 35.703318,116.184423 C35.703318,123.221449 34.5255412,123.807417 33.5210181,126.739854 C32.516495,129.672291 31.5117545,137.295718 31.6156631,138.710094 C31.6156631,138.710094 32.042167,143.606694 32.2499844,144.331199 C32.4575844,145.055704 32.9038394,146.172111 33,147.10279 C33.0961606,148.033468 33.4871065,148.257859 32.7588761,149.256446 C32.7588761,149.256446 27.5277909,149.463169 26.2458881,149.256446 C25.6590021,149.161787 25.9930881,147.502858 26.2458881,146.577227 C26.5451716,145.481395 26.8413576,144.974661 26.9393373,143.059332 C27.120079,139.526156 26.8702098,136.36449 26.9393373,135.709254 C27.0084649,135.054018 27.5277909,127.429725 26.6271765,123.739231 C25.7265621,120.047871 25.8650345,114.424788 26.7313026,111.941297 C27.5973532,109.457589 26.3150157,108.077632 25.3798374,105.076576 C24.4448766,102.07552 23.9594622,94.7969197 23.9594622,91.5882747 C23.9594622,88.3804955 22.8858115,86.1381456 22.3660507,84.2752569 C21.8462898,82.4125847 21.9156348,79.7217214 21.9156348,79.7217214 L21.5,79.5444374 L21.0843652,79.7217214 C21.0843652,79.7217214 21.1537102,82.4125847 20.6339493,84.2752569 C20.1141885,86.1381456 19.0403204,88.3804955 19.0403204,91.5882747 C19.0403204,94.7969197 18.5551234,102.07552 17.6201626,105.076576 C16.6849843,108.077632 15.4026468,109.457589 16.2686974,111.941297 C17.1347481,114.424788 17.2734379,120.047871 16.3728235,123.739231 C15.4722091,127.429725 15.9915351,135.054018 16.0606627,135.709254 C16.1297902,136.36449 16.1173084,140.630113 16.2686974,143.587642 C16.4161728,146.468715 16.7439412,146.467004 16.9900399,147.436166 C17.2361385,148.405329 16.7872509,149.251102 16.7541119,149.256446 C15.6677477,149.431666 12.66255,149.297643 10.7263209,149.256446 C10.3781994,149.249039 9.84556503,148.677504 9.84556503,147.862983 C9.84556503,145.964936 10.2834114,146.313477 10.7263209,143.94792 C11.1692305,141.582363 11.3843369,138.710094 11.3843369,138.710094 C11.4882455,137.295718 10.4837224,129.672291 9.47898189,126.739854 C8.47445876,123.807417 7.29668202,123.221449 7.29668202,116.184423 C7.29668202,109.14718 8.47445876,105.697394 8.64749499,103.248321 C8.8207486,100.799032 7.50471678,83.7925423 7.67775301,79.2045891 C7.85100662,74.6166358 9.68679927,62.0255777 10.2409065,59.7832278 C10.7954485,57.5408778 11.5923716,52.3323225 10.4382895,49.3312664 C9.28420745,46.3302103 10.0326544,41.6383544 9.51267614,42.3284414 C8.99313268,43.018312 8.43902546,45.8124285 8.40424431,47.9166745 C8.36924578,50.0209205 7.71166463,52.9544398 7.15734003,54.196077 C6.60301543,55.4379306 7.64210233,61.8197205 7.08821249,65.0967681 C6.53432266,68.3740322 4.83635032,74.3068759 4.83635032,75.4454763 C4.83635032,76.5838601 5.46023722,76.8596352 6.01412706,77.9289671 C6.5680169,78.9985154 5.87543722,81.3785364 5.87543722,81.3785364 C6.36019952,84.586965 5.97956329,84.586965 5.39067492,84.5518978 C4.80178655,84.5176965 3.97029964,81.7924155 3.97029964,81.7924155 L3.10424897,81.3785364 C3.10424897,81.3785364 2.41123453,82.1376755 2.93099536,83.3104771 C3.45097358,84.4832787 6.46432559,86.0699594 6.11803575,86.4840549 C5.77174591,86.897934 4.73222424,86.4496372 4.73222424,86.4496372 C4.73222424,86.4496372 6.81105019,88.4504134 6.56845166,88.6915542 C6.32585313,88.9333444 5.94499952,88.8638595 5.94499952,88.8638595 C5.94499952,88.8638595 6.53388789,89.5539466 6.04890821,89.8643558 C5.56414591,90.1747651 4.17833441,89.1749182 4.17833441,89.1749182 C2.27319683,88.8987102 0.436969416,84.2761227 0.159807114,83.7587739 C-0.117355187,83.2414251 0.610223026,77.2042458 0.818257789,74.9618958 C1.02629255,72.7197623 -0.359953718,56.3336584 0.0906795759,55.3331621 C0.54131287,54.3326657 0.956730248,51.9872789 0.679567947,50.4347995 Z" id="Fill-5" fill="#7FD5D7"></path>
                            <line x1="23" y1="70" x2="25" y2="69" id="Path-7" stroke="#00ABAF" stroke-width="0.5" stroke-linecap="round"></line>
                            <line x1="40" y1="56" x2="41" y2="55" id="Path-7-Copy-2" stroke="#00ABAF" stroke-width="0.5" stroke-linecap="round"></line>
                            <line x1="4" y1="56" x2="5" y2="55" id="Path-7-Copy-4" stroke="#00ABAF" stroke-width="0.5" stroke-linecap="round"></line>
                            <line x1="18" y1="70" x2="20" y2="69" id="Path-7-Copy" stroke="#00ABAF" stroke-width="0.5" stroke-linecap="round" transform="translate(19.000000, 69.500000) scale(-1, 1) translate(-19.000000, -69.500000) "></line>
                            <line x1="38" y1="56" x2="39" y2="55" id="Path-7-Copy-3" stroke="#00ABAF" stroke-width="0.5" stroke-linecap="round" transform="translate(38.500000, 55.500000) scale(-1, 1) translate(-38.500000, -55.500000) "></line>
                            <line x1="2" y1="56" x2="3" y2="55" id="Path-7-Copy-5" stroke="#00ABAF" stroke-width="0.5" stroke-linecap="round" transform="translate(2.500000, 55.500000) scale(-1, 1) translate(-2.500000, -55.500000) "></line>
                            <path d="M14,34 C14.6521269,38.3635278 15.1451889,40.7300038 15.4791862,41.0994279 C15.980182,41.653564 17.1129115,42.6985578 18.7198311,43.4106264" id="Path-2-Copy" stroke="#00ABAF" stroke-width="0.8" stroke-linecap="round" transform="translate(16.359916, 38.705313) scale(-1, 1) translate(-16.359916, -38.705313) "></path>
                            <path d="M24,34 C24.6521269,38.3635278 25.1451889,40.7300038 25.4791862,41.0994279 C25.980182,41.653564 27.1129115,42.6985578 28.7198311,43.4106264" id="Path-2-Copy-3" stroke="#00ABAF" stroke-width="0.8" stroke-linecap="round"></path>
                            <path d="M7.57927796,40.0345818 C7.57927796,40.0345818 8,41.6728707 9.51267614,42.3284414" id="Path-2" stroke="#00ABAF" stroke-width="0.5" stroke-linecap="round"></path>
                            <path d="M33.5,40.0345818 C33.5,40.0345818 33.920722,41.6728707 35.4333982,42.3284414" id="Path-2-Copy-2" stroke="#00ABAF" stroke-width="0.5" stroke-linecap="round" transform="translate(34.466699, 41.181512) scale(-1, 1) translate(-34.466699, -41.181512) "></path>
                            <line x1="21.5" y1="49" x2="21.5" y2="64.290016" id="Path-3-Copy" stroke="#00ABAF" stroke-width="0.5" stroke-linecap="round"></line>
                            <path d="M8.45323623,71.7369925 C10.5164017,72.1046525 17.1453085,72.5046421 21.5,72.5046421 C24.4031277,72.5046421 28.8089947,72.2487589 34.717601,71.7369925 C35.7563469,77.5363066 35.8504799,82.1338907 35,85.529745 C34.4634043,85.6613206 30.3892978,85.7604206 22.7776804,85.8270448 C22.3879995,85.2855638 22.1223577,84.9009918 21.980755,84.6733288 C21.768351,84.3318344 21.4498794,84.3318344 21.1357417,84.6733288 C20.8216041,85.0148232 20.5974783,85.6110831 19.9041833,86.0277154 C19.3495021,86.5256858 8.65143809,85.6110831 7.88787594,85.8270448 C7.12431378,86.0430065 7.12431378,73.3664146 8.45323623,71.7369925 Z" id="Path-6" fill="#00ABAF"></path>
                        </g>
                    </g>
                </g>
            </g>
        </g>
    </g>
</svg>

<svg width="43" height="150" xmlns="http://www.w3.org/2000/svg"><g fill="none" fill-rule="evenodd"><path d="M.68 50.435c-.278-1.552-.59-9.418.276-11.488.866-2.07-.173-5.898 2.148-9.658s7.622-3.623 7.622-3.623 4.989-1.622 5.681-2.622c.693-1 .347-5.347.347-5.347-1.35-1-1.49-3.933-1.49-3.933s-.104.517-.623.172c-.52-.344-.693-3.829-.555-4.14.14-.31.728-.206.728-.206s-.831-4.554.59-6.9C16.823.346 20.183 0 21.5 0c1.316 0 4.677.345 6.097 2.69 1.42 2.346.59 6.9.59 6.9s.588-.103.727.207c.138.31-.035 3.795-.555 4.14-.52.344-.624-.173-.624-.173s-.138 2.933-1.49 3.933c0 0-.345 4.347.348 5.347.692 1 5.68 2.622 5.68 2.622s5.302-.137 7.623 3.623c2.32 3.76 1.282 7.588 2.148 9.658.866 2.07.554 9.936.276 11.488-.277 1.552.139 3.898.59 4.898.45 1-.936 17.387-.728 19.629.208 2.242.935 8.28.658 8.797-.277.517-2.113 5.14-4.018 5.416 0 0-1.386 1-1.871.69-.485-.311.104-1.001.104-1.001s-.38.07-.623-.172 1.836-2.242 1.836-2.242-1.04.448-1.386.034c-.346-.414 2.667-2 3.187-3.174.52-1.172-.173-1.931-.173-1.931l-.866.413s-.832 2.726-1.42 2.76c-.59.035-.97.035-.485-3.173 0 0-.693-2.38-.14-3.45.555-1.07 1.179-1.345 1.179-2.484 0-1.138-1.698-7.071-2.252-10.348-.554-3.277.485-9.66-.07-10.9-.553-1.243-1.211-4.176-1.246-6.28-.035-2.105-.59-4.899-1.109-5.589-.52-.69.229 4.002-.925 7.003-1.154 3.001-.357 8.21.197 10.452.554 2.243 2.39 14.834 2.563 19.422.173 4.588-1.143 21.594-.97 24.043.174 2.45 1.351 5.9 1.351 12.936 0 7.037-1.177 7.623-2.182 10.556-1.005 2.932-2.01 10.556-1.905 11.97 0 0 .426 4.897.634 5.621.208.725.654 1.841.75 2.772.096.93.487 1.155-.241 2.153 0 0-5.231.207-6.513 0-.587-.094-.253-1.753 0-2.679.3-1.096.595-1.602.693-3.518.181-3.533-.069-6.695 0-7.35.07-.655.589-8.28-.312-11.97-.9-3.691-.762-9.314.104-11.798.866-2.483-.416-3.863-1.351-6.864s-1.42-10.28-1.42-13.489c0-3.208-1.074-5.45-1.594-7.313-.52-1.862-.45-4.553-.45-4.553l-.416-.178-.416.178s.07 2.69-.45 4.553-1.594 4.105-1.594 7.313c0 3.209-.485 10.488-1.42 13.489-.935 3-2.217 4.38-1.351 6.864.866 2.484 1.004 8.107.104 11.798-.9 3.69-.381 11.315-.312 11.97.069.655.056 4.921.208 7.879.147 2.88.475 2.879.721 3.848.246.97-.203 1.815-.236 1.82-1.086.176-4.091.042-6.028 0-.348-.007-.88-.578-.88-1.393 0-1.898.437-1.55.88-3.915.443-2.366.658-5.238.658-5.238.104-1.414-.9-9.038-1.905-11.97-1.005-2.933-2.182-3.519-2.182-10.556 0-7.037 1.177-10.487 1.35-12.936.174-2.449-1.142-19.455-.97-24.043.174-4.588 2.01-17.18 2.564-19.422.554-2.242 1.351-7.45.197-10.452-1.154-3-.405-7.693-.925-7.003-.52.69-1.074 3.484-1.109 5.589-.035 2.104-.692 5.037-1.247 6.28-.554 1.24.485 7.623-.069 10.9s-2.252 9.21-2.252 10.348c0 1.139.624 1.415 1.178 2.484.554 1.07-.139 3.45-.139 3.45.485 3.208.105 3.208-.484 3.173-.59-.034-1.42-2.76-1.42-2.76l-.867-.413s-.693.759-.173 1.931c.52 1.173 3.533 2.76 3.187 3.174-.346.414-1.386-.034-1.386-.034s2.08 2 1.836 2.242c-.242.241-.623.172-.623.172s.589.69.104 1c-.485.31-1.87-.69-1.87-.69C2.272 88.9.436 84.277.158 83.76c-.276-.518.451-6.555.66-8.797C1.025 72.72-.36 56.334.09 55.333c.45-1 .866-3.346.589-4.898Z" fill="#7FD5D7"/><path stroke="#00ABAF" stroke-width=".5" stroke-linecap="round" d="m23 70 2-1M40 56l1-1M4 56l1-1M20 70l-2-1M39 56l-1-1M3 56l-1-1"/><path d="M18.72 34c-.652 4.364-1.145 6.73-1.48 7.1-.5.554-1.633 1.599-3.24 2.31M24 34c.652 4.364 1.145 6.73 1.48 7.1.5.554 1.633 1.599 3.24 2.31" stroke="#00ABAF" stroke-width=".8" stroke-linecap="round"/><path d="M7.58 40.035s.42 1.638 1.933 2.293M35.433 40.035s-.42 1.638-1.933 2.293M21.5 49v15.29" stroke="#00ABAF" stroke-width=".5" stroke-linecap="round"/><path d="M8.453 71.737c2.063.368 8.692.768 13.047.768 2.903 0 7.309-.256 13.218-.768 1.038 5.8 1.132 10.397.282 13.793-.537.131-4.61.23-12.222.297-.39-.541-.656-.926-.797-1.154-.213-.341-.531-.341-.845 0-.314.342-.539.938-1.232 1.355-.554.498-11.253-.417-12.016-.201-.764.216-.764-12.46.565-14.09Z" fill="#00ABAF"/></g></svg>
